home/.icons/Gruvbox-Plus-Dark/status/48/trophy-silver.svg

<svg xmlns="http://www.w3.org/2000/svg" width="48" height="48" version="1">
 <path d="M 34.658203,5.0018466 A 9.8300564,11.152129 20.398439 0 0 25.558594,10.888565 9.8300564,11.152129 20.398439 0 0 28.638672,25.740127 9.8300564,11.152129 20.398439 0 0 42.441406,21.111221 9.8300564,11.152129 20.398439 0 0 39.361328,6.2596591 9.8300564,11.152129 20.398439 0 0 34.658203,5.0018466 Z m 0.08008,4.0683594 c 0.958171,-0.024517 1.887716,0.207418 2.69336,0.6953125 2.578063,1.5612625 3.621087,5.5760035 1.585937,9.2734365 -2.03515,3.697434 -5.871157,4.756576 -8.449219,3.195313 -2.578062,-1.561262 -3.62304,-5.576004 -1.58789,-9.273437 1.399165,-2.541985 3.649837,-3.8366887 5.757812,-3.890625 z" style="opacity:0.2"/>
 <path d="M 13.341797,5.0018466 A 11.152129,9.8300564 69.601561 0 0 8.6386719,6.2596591 11.152129,9.8300564 69.601561 0 0 5.5585938,21.111221 11.152129,9.8300564 69.601561 0 0 19.361328,25.740127 11.152129,9.8300564 69.601561 0 0 22.441406,10.888565 11.152129,9.8300564 69.601561 0 0 13.341797,5.0018466 Z m -0.08203,4.0683594 c 2.107697,0.053431 4.358647,1.34864 5.757812,3.890625 2.03515,3.697433 0.992125,7.712175 -1.585937,9.273437 -2.578062,1.561263 -6.414069,0.502121 -8.4492191,-3.195313 C 6.9472717,15.341522 7.9902976,11.328734 10.568359,9.7674716 11.374004,9.279577 12.301721,9.0459194 13.259766,9.070206 Z" style="opacity:0.2"/>
 <rect style="opacity:0.2" width="28" height="4" x="10" y="41" rx="2" ry="2"/>
 <path style="fill:#a89984" d="M 34.658203 4.0019531 A 9.8300564 11.152129 20.398439 0 0 25.558594 9.8886719 A 9.8300564 11.152129 20.398439 0 0 28.638672 24.740234 A 9.8300564 11.152129 20.398439 0 0 42.441406 20.111328 A 9.8300564 11.152129 20.398439 0 0 39.361328 5.2597656 A 9.8300564 11.152129 20.398439 0 0 34.658203 4.0019531 z M 34.738281 8.0703125 C 35.696452 8.045796 36.625997 8.2777305 37.431641 8.765625 C 40.009704 10.326888 41.052728 14.341629 39.017578 18.039062 C 36.982428 21.736496 33.146421 22.795638 30.568359 21.234375 C 27.990297 19.673113 26.945319 15.658371 28.980469 11.960938 C 30.379634 9.4189523 32.630306 8.1242488 34.738281 8.0703125 z"/>
 <path style="fill:#a89984" d="M 13.341797 4.0019531 A 11.152129 9.8300564 69.601561 0 0 8.6386719 5.2597656 A 11.152129 9.8300564 69.601561 0 0 5.5585938 20.111328 A 11.152129 9.8300564 69.601561 0 0 19.361328 24.740234 A 11.152129 9.8300564 69.601561 0 0 22.441406 9.8886719 A 11.152129 9.8300564 69.601561 0 0 13.341797 4.0019531 z M 13.259766 8.0703125 C 15.367463 8.1237431 17.618413 9.4189524 19.017578 11.960938 C 21.052728 15.658371 20.009703 19.673113 17.431641 21.234375 C 14.853579 22.795638 11.017572 21.736496 8.9824219 18.039062 C 6.9472717 14.341629 7.9902976 10.328841 10.568359 8.7675781 C 11.374004 8.2796835 12.301721 8.0460259 13.259766 8.0703125 z"/>
 <rect style="fill:#a89984" width="8" height="18" x="20" y="24"/>
 <path d="m 11,5 v 9.5 C 11,19.19442 16.820298,30 24,30 31.179702,30 37,19.19442 37,14.5 V 5 Z" style="opacity:0.2"/>
 <path style="fill:#bdae93" d="M 11 4 L 11 13.5 C 11 18.19442 16.820298 29 24 29 C 31.179702 29 37 18.19442 37 13.5 L 37 4 L 11 4 z"/>
 <rect width="32" height="4" x="8" y="5" rx="2" ry="2" style="opacity:0.2"/>
 <rect style="fill:#bdae93" width="32" height="4" x="8" y="4" rx="2" ry="2"/>
 <path style="fill:#bdae93" d="m 24,36 a 9,5.9999997 0 0 0 -9,6 h 18 a 9,5.9999997 0 0 0 -9,-6 z"/>
 <rect width="28" height="4" x="10" y="40" rx="2" ry="2" style="fill:#504945"/>
 <path style="opacity:0.2;fill:#f9f9f9" d="M 10 4 C 8.892 4 8 4.892 8 6 C 8 6.1738348 8.0290105 6.3394094 8.0703125 6.5 C 8.2922638 5.6370069 9.0658348 5 10 5 L 38 5 C 38.934165 5 39.707736 5.6370069 39.929688 6.5 C 39.970989 6.3394094 40 6.1738348 40 6 C 40 4.892 39.108 4 38 4 L 10 4 z"/>
</svg>

<svg width="48" height="48" version="1" xmlns="http://www.w3.org/2000/svg">
  <path d="m34.658 5.0018a9.8301 11.152 20.398 0 0-9.0996 5.8867 9.8301 11.152 20.398 0 0 3.0801 14.852 9.8301 11.152 20.398 0 0 13.803-4.6289 9.8301 11.152 20.398 0 0-3.0801-14.852 9.8301 11.152 20.398 0 0-4.7031-1.2578zm0.08008 4.0684c0.95817-0.024517 1.8877 0.20742 2.6934 0.69531 2.5781 1.5613 3.6211 5.576 1.5859 9.2734-2.0352 3.6974-5.8712 4.7566-8.4492 3.1953-2.5781-1.5613-3.623-5.576-1.5879-9.2734 1.3992-2.542 3.6498-3.8367 5.7578-3.8906z" fill="#282828" opacity=".2"/>
  <path d="m13.342 5.0018a11.152 9.8301 69.602 0 0-4.7031 1.2578 11.152 9.8301 69.602 0 0-3.0801 14.852 11.152 9.8301 69.602 0 0 13.803 4.6289 11.152 9.8301 69.602 0 0 3.0801-14.852 11.152 9.8301 69.602 0 0-9.0996-5.8867zm-0.08203 4.0684c2.1077 0.053431 4.3586 1.3486 5.7578 3.8906 2.0352 3.6974 0.99212 7.7122-1.5859 9.2734-2.5781 1.5613-6.4141 0.50212-8.4492-3.1953-2.0352-3.6974-0.99213-7.7102 1.5859-9.2715 0.80564-0.48789 1.7334-0.72155 2.6914-0.69727z" fill="#282828" opacity=".2"/>
  <rect x="10" y="41" width="28" height="4" rx="2" ry="2" fill="#282828" opacity=".2"/>
  <path d="m34.658 4.002a9.8301 11.152 20.398 0 0-9.0996 5.8867 9.8301 11.152 20.398 0 0 3.0801 14.852 9.8301 11.152 20.398 0 0 13.803-4.6289 9.8301 11.152 20.398 0 0-3.0801-14.852 9.8301 11.152 20.398 0 0-4.7031-1.2578zm0.080078 4.0684c0.95817-0.024516 1.8877 0.20742 2.6934 0.69531 2.5781 1.5613 3.6211 5.576 1.5859 9.2734-2.0352 3.6974-5.8712 4.7566-8.4492 3.1953-2.5781-1.5613-3.623-5.576-1.5879-9.2734 1.3992-2.542 3.6498-3.8367 5.7578-3.8906z" fill="#a89984"/>
  <path d="m13.342 4.002a11.152 9.8301 69.602 0 0-4.7031 1.2578 11.152 9.8301 69.602 0 0-3.0801 14.852 11.152 9.8301 69.602 0 0 13.803 4.6289 11.152 9.8301 69.602 0 0 3.0801-14.852 11.152 9.8301 69.602 0 0-9.0996-5.8867zm-0.082031 4.0684c2.1077 0.053431 4.3586 1.3486 5.7578 3.8906 2.0352 3.6974 0.99212 7.7122-1.5859 9.2734-2.5781 1.5613-6.4141 0.50212-8.4492-3.1953-2.0352-3.6974-0.99212-7.7102 1.5859-9.2715 0.80564-0.48789 1.7334-0.72155 2.6914-0.69727z" fill="#a89984"/>
  <rect x="20" y="24" width="8" height="18" fill="#a89984"/>
  <path d="m11 5v9.5c0 4.6944 5.8203 15.5 13 15.5s13-10.806 13-15.5v-9.5z" fill="#282828" opacity=".2"/>
  <path d="m11 4v9.5c0 4.6944 5.8203 15.5 13 15.5s13-10.806 13-15.5v-9.5h-26z" fill="#bdae93"/>
  <rect x="8" y="5" width="32" height="4" rx="2" ry="2" fill="#282828" opacity=".3"/>
  <rect x="8" y="4" width="32" height="4" rx="2" ry="2" fill="#bdae93"/>
  <path d="m24 36a9 6 0 0 0-9 6h18a9 6 0 0 0-9-6z" fill="#bdae93"/>
  <rect x="10" y="40" width="28" height="4" rx="2" ry="2" fill="#504945"/>
  <path d="m10 4c-1.108 0-2 0.892-2 2 0 0.17383 0.02901 0.33941 0.070312 0.5 0.22195-0.86299 0.99552-1.5 1.9297-1.5h28c0.93416 0 1.7077 0.63701 1.9297 1.5 0.041301-0.16059 0.070312-0.32617 0.070312-0.5 0-1.108-0.892-2-2-2h-28z" fill="#f9f9f9" opacity=".3"/>
</svg>
